shapes/blueStars.svg

<?xml version="1.0" encoding="UTF-8" standalone="no"?>
<svg
   width="431"
   height="431"
   viewBox="0 0 431 431"
   fill="none"
   version="1.1"
   id="svg6"
   sodipodi:docname="blueStars.svg"
   inkscape:version="1.2.2 (b0a8486, 2022-12-01)"
   xmlns:inkscape="http://www.inkscape.org/namespaces/inkscape"
   xmlns:sodipodi="http://sodipodi.sourceforge.net/DTD/sodipodi-0.dtd"
   xmlns="http://www.w3.org/2000/svg"
   xmlns:svg="http://www.w3.org/2000/svg">
  <defs
     id="defs10" />
  <sodipodi:namedview
     id="namedview8"
     pagecolor="#ffffff"
     bordercolor="#000000"
     borderopacity="0.25"
     inkscape:showpageshadow="2"
     inkscape:pageopacity="0.0"
     inkscape:pagecheckerboard="0"
     inkscape:deskcolor="#d1d1d1"
     showgrid="false"
     inkscape:zoom="0.54756381"
     inkscape:cx="-73.050847"
     inkscape:cy="223.71822"
     inkscape:window-width="1309"
     inkscape:window-height="761"
     inkscape:window-x="1443"
     inkscape:window-y="27"
     inkscape:window-maximized="0"
     inkscape:current-layer="svg6" />
  <path
     d="M196.238 38.4047C196.559 37.5312 197.794 37.5312 198.115 38.4047L249.998 179.611C250.099 179.886 250.316 180.103 250.592 180.204L391.798 232.088C392.671 232.409 392.671 233.644 391.798 233.965L250.592 285.848C250.316 285.949 250.099 286.166 249.998 286.442L198.115 427.648C197.794 428.521 196.559 428.521 196.238 427.648L144.354 286.442C144.253 286.166 144.036 285.949 143.761 285.848L2.55463 233.965C1.68115 233.644 1.68114 232.409 2.55463 232.088L143.761 180.204C144.036 180.103 144.253 179.886 144.354 179.611L196.238 38.4047Z"
     fill="#20AFFF"
     id="path2"
     style="fill:#1681bf;fill-opacity:1" />
  <path
     d="M330.675 2.55463C330.996 1.68114 332.232 1.68114 332.553 2.55463L357.945 71.6632C358.046 71.9387 358.263 72.1558 358.539 72.257L427.647 97.6495C428.521 97.9704 428.521 99.2058 427.647 99.5268L358.539 124.919C358.263 125.02 358.046 125.238 357.945 125.513L332.553 194.622C332.232 195.495 330.996 195.495 330.675 194.622L305.283 125.513C305.182 125.238 304.965 125.02 304.689 124.919L235.581 99.5268C234.707 99.2058 234.707 97.9704 235.581 97.6495L304.689 72.257C304.965 72.1558 305.182 71.9387 305.283 71.6632L330.675 2.55463Z"
     fill="#20AFFF"
     id="path4"
     style="fill:#1681bf;fill-opacity:1" />
</svg>

<?xml version="1.0" encoding="utf-8"?>
<!-- Generator: Adobe Illustrator 27.6.1, SVG Export Plug-In . SVG Version: 6.00 Build 0)  -->
<svg version="1.1"
	 id="svg6" xmlns:sodipodi="http://sodipodi.sourceforge.net/DTD/sodipodi-0.dtd" xmlns:inkscape="http://www.inkscape.org/namespaces/inkscape" xmlns:svg="http://www.w3.org/2000/svg" inkscape:version="1.2.2 (b0a8486, 2022-12-01)" sodipodi:docname="blueStars.svg"
	 xmlns="http://www.w3.org/2000/svg" xmlns:xlink="http://www.w3.org/1999/xlink" x="0px" y="0px" viewBox="0 0 431 431"
	 style="enable-background:new 0 0 431 431;" xml:space="preserve">
<style type="text/css">
	.st0{fill:#34676F;}
</style>
<sodipodi:namedview  bordercolor="#000000" borderopacity="0.25" id="namedview8" inkscape:current-layer="svg6" inkscape:cx="-73.050847" inkscape:cy="223.71822" inkscape:deskcolor="#d1d1d1" inkscape:pagecheckerboard="0" inkscape:pageopacity="0.0" inkscape:showpageshadow="2" inkscape:window-height="761" inkscape:window-maximized="0" inkscape:window-width="1309" inkscape:window-x="1443" inkscape:window-y="27" inkscape:zoom="0.54756381" pagecolor="#ffffff" showgrid="false">
	</sodipodi:namedview>
<path id="path2" class="st0" d="M196.2,38.4c0.3-0.9,1.6-0.9,1.9,0L250,179.6c0.1,0.3,0.3,0.5,0.6,0.6l141.2,51.9
	c0.9,0.3,0.9,1.6,0,1.9l-141.2,51.9c-0.3,0.1-0.5,0.3-0.6,0.6l-51.9,141.2c-0.3,0.9-1.6,0.9-1.9,0l-51.9-141.2
	c-0.1-0.3-0.3-0.5-0.6-0.6L2.6,234c-0.9-0.3-0.9-1.6,0-1.9l141.2-51.9c0.3-0.1,0.5-0.3,0.6-0.6L196.2,38.4z"/>
<path id="path4" class="st0" d="M330.7,2.6c0.3-0.9,1.6-0.9,1.9,0l25.4,69.1c0.1,0.3,0.3,0.5,0.6,0.6l69.1,25.4
	c0.9,0.3,0.9,1.6,0,1.9l-69.1,25.4c-0.3,0.1-0.5,0.3-0.6,0.6l-25.4,69.1c-0.3,0.9-1.6,0.9-1.9,0l-25.4-69.1
	c-0.1-0.3-0.3-0.5-0.6-0.6l-69.1-25.4c-0.9-0.3-0.9-1.6,0-1.9l69.1-25.4c0.3-0.1,0.5-0.3,0.6-0.6L330.7,2.6z"/>
</svg>
